app/dist/common/images/planet-labs.svg

<svg height="18" viewBox="0 0 18 18" width="18" xmlns="http://www.w3.org/2000/svg"><path d="m0 0h18v18h-18z" fill="#009da6"/><path d="m14 9a5 5 0 1 1 -10 0 5 5 0 0 1 10 0zm1 0a6 6 0 1 1 -12 0 6 6 0 0 1 12 0zm-7.98-2.98h-.02v5.69c0 .25.1.48.27.66.18.18.48.27.73.27v-2.44c.18.3.63.81 1.61.81a2.4 2.4 0 0 0 2.39-2.45c0-1.27-.84-2.56-2.45-2.56-.7-.01-1.16.3-1.55.86 0-.21-.2-.41-.35-.56l-.04-.04a.83.83 0 0 0 -.59-.24zm.98 2.47c0-.88.56-1.68 1.5-1.68.96 0 1.5.84 1.5 1.7.03.88-.6 1.69-1.5 1.7-.88 0-1.5-.77-1.5-1.72z" fill="#fff" fill-rule="evenodd"/></svg>

<!-- by TradingView --><svg xmlns="http://www.w3.org/2000/svg" width="18" height="18" viewBox="0 0 18 18"><path fill="#009DA6" d="M0 0h18v18H0z"/><path fill-rule="evenodd" d="M14 9A5 5 0 1 1 4 9a5 5 0 0 1 10 0Zm1 0A6 6 0 1 1 3 9a6 6 0 0 1 12 0ZM7.02 6.02H7v5.69c0 .25.1.48.27.66.18.18.48.27.73.27V10.2c.18.3.63.81 1.61.81A2.4 2.4 0 0 0 12 8.56C12 7.29 11.16 6 9.55 6c-.7-.01-1.16.3-1.55.86 0-.21-.2-.41-.35-.56l-.04-.04a.83.83 0 0 0-.59-.24ZM8 8.49c0-.88.56-1.68 1.5-1.68.96 0 1.5.84 1.5 1.7.03.88-.6 1.69-1.5 1.7-.88 0-1.5-.77-1.5-1.72Z" fill="#fff"/></svg>
